X: 12655
T: Farrel O'Gara's
R: reel
M: 4/4
K: Dmajor
~A,3B, DEFA|BFAF EFGA|dBBA BAGF|(3GFE ED EDB,D|
~A3,B, DEFA|BFAF EFGA|dBcA (3Bcd AF|G2EG FDD2:|
fdde fdgd|fdgf edBc|dBBA Bcde|fdgf e2ge|
fdde fdgd|fdgf edBc|dBBA BAGF|G2EG FDD2|
fdde fdgd|fdgf edBc|dBBA Bcde|fdgf ~e3g|
faaf edBc|d2ed BAFD|EDB,D A,DFA|(3Bcd AF EFD2||

